assets/stickers/shapes/stickers/imgly_sticker_shapes_badge_19.svg

<svg height="481" viewBox="0 0 2127 481" width="2127" xmlns="http://www.w3.org/2000/svg"><path d="m1805.1179 433.573735-1486.088107-.024479.14889-311.331684 1485.988137.014901zm199.11166-224.091803 122.77044 196.528139h-275.04343l-.01489 74.988535h-1579.698442l.026587-74.988535h-272.269825l122.77044-196.528139-122.77044-209.40849417h466.229892v74.77354347l1194.540218-.0138361v-74.75970737h466.22989zm-1731.938464 151.070124h-193.438952l94.941836-151.230835-97.874969-166.9593026h276.293046l36.917276-13.6945581h-337.10504l105.757631 180.4143887-103.692314 165.166994h218.195105zm1546.557654-252.017334-1513.356248-.012772-.146763 338.718671 1513.455151.024479zm150.3672 100.545963 105.75763-180.4143891h-337.10504l36.91728 13.6945582h276.29304l-97.8739 166.9593019 94.94077 151.230836h-196.18491v13.694558h220.94744z" fill="#fff" transform=""/></svg>

<?xml version="1.0" encoding="UTF-8"?>
<svg width="2127px" height="481px" viewBox="0 0 2127 481" version="1.1" xmlns="http://www.w3.org/2000/svg" xmlns:xlink="http://www.w3.org/1999/xlink">
    <!-- Generator: Sketch 43.1 (39012) - http://www.bohemiancoding.com/sketch -->
    <title>imgly_sticker_shapes_badge_19</title>
    <desc>Created with Sketch.</desc>
    <defs></defs>
    <g id="Page-1" stroke="none" stroke-width="1" fill="none" fill-rule="evenodd">
        <g id="Artboard" transform="translate(-6666.000000, -8338.000000)" fill-rule="nonzero" fill="#FFFFFF">
            <g id="badge_19" transform="translate(6666.000000, 8338.000000)">
                <path d="M1805.1179,433.573735 L319.029793,433.549256 L319.178683,122.217572 L1805.16682,122.232473 L1805.1179,433.573735 Z M2004.22956,209.481932 L2127,406.010071 L1851.95657,406.010071 L1851.94168,480.998606 L272.243238,480.998606 L272.269825,406.010071 L0,406.010071 L122.77044,209.481932 L0,0.0734378265 L466.229892,0.0734378265 L466.229892,74.8469813 L1660.77011,74.8331452 L1660.77011,0.0734378265 L2127,0.0734378265 L2004.22956,209.481932 Z M272.291096,360.552056 L78.852144,360.552056 L173.79398,209.321221 L75.919011,42.3619184 L352.212057,42.3619184 L389.129333,28.6673603 L52.024293,28.6673603 L157.781924,209.081749 L54.08961,374.248743 L272.284715,374.248743 L272.291096,360.552056 Z M1818.84875,108.534722 L305.492502,108.52195 L305.345739,447.240621 L1818.80089,447.2651 L1818.84875,108.534722 Z M1969.21595,209.080685 L2074.97358,28.6662959 L1737.86854,28.6662959 L1774.78582,42.3608541 L2051.07886,42.3608541 L1953.20496,209.320156 L2048.14573,360.550992 L1851.96082,360.550992 L1851.96082,374.24555 L2072.90826,374.24555 L1969.21595,209.080685 Z" id="Shape"></path>
            </g>
        </g>
    </g>
</svg>
